!!!OTL: Keine Antwort und doch eine.
!!!OTL-incipit: WO FIND ICH DEINES VATERS HAUS
!!!ARE: Europa, Mitteleuropa, Deutschland, Westfalen
!!!SCT: Z1147
!!!TXL: @@DE
!!!YEM: Copyright 1995, estate of Helmut Schaffrath.
**kern	**text
*ICvox	*
*M4/4	*
*met(c)	*
*k[f#]	*
*G:	*
!LO:TX:a:t=Aus Weſtphalen.	!
{8d	Wo
8d	find'
8d	ich
=1	=1
4g	dei-
4b/	-nes
4b/	Va-
8aL	-ters
8gJ	.
=2	=2
4a	Haus?
4r	.
8r}	.
{8d	du
8d	ſäu-
8f#	-ber-
=3	=3
4a	-li-
4cc	-ches
4cc	Mäg-
(8bL	-de-
8aJ)	.
=4	=4
2b	-lein?
8r}	.
{8dd	Geh'
8dd	du
8cc	das
=5	=5
8b	Gäſſe-
8cc	.
8dd	-lein
8dd	wohl
8eeL	auf
8ddJ	.
8ccL	und
8bJ	.
=6	=6
2cc	ab,
8r}	.
{8cc	geh'
8cc	du
8b	das
=7	=7
8a	Gäſſe-
8b/	.
8cc	-lein
8cc	wohl
8ddL	auf
8ccJ	.
8bL	und
8aJ	.
=8	=8
2b	ab;
4r}	.
{8gL	ſchweig',
8aJ	.
=9	=9
4b	laß
4dd	dein
2a	Fra-
=10	=10
2g	-gen!
8r}	.
==	==
!!!AGN: Liebes - Lied
!!!ONB: ESAC (Essen Associative Code) Database: ZUCCAL
!!!AMT: simple quadruple
!!!AIN: vox
!!!EED: Helmut Schaffrath
!!!EEV: 1.0
!!!GTL: V. Lieder der Minne.
!!!URL-scan: https://www.digitale-sammlungen.de/de/view/bsb11160573?page=324
!!!ENC: Anna Maria Matuszewska
!!!EEV: 2025/02/05
*-	*-
